X: 19102
T: Irish Lamentation
R: waltz
M: 3/4
K: Gmajor
GA|:B2 TB3/2A/ Bc|B2 A2GA|B2 d2 gB|A4 GA|
BG cB AG|E2 DE GA|B2 G2 GA|1 G4 GA:|2 G4 dc||
BG AB dg|ed cB AG|GD GA Bd|e3 g/e/ g/e/d/c/|
Bc/B/ AD G/A/B/d/|ed cB AB|GA Bd ga|g4 de||
=f2 f2 g/f/e/d/|e2 e=f/e/ d/e/f/e/|dc Bd gB|A4 GA|
BG cB AG|E2 D/G,/A,/B,/ D/E/G/A/|Bc/B/ A/B/c/d/ e/d/c/A/|G4 z2||
"Variation"Tg2 a/g/e/d/ ed/B/|d2 e/d/B/A/ BA/G/|A2 G/E/D/E/ GG|G4 z2||

